X: 22752
T: Land's End
R: slip jig
M: 9/8
K: Eminor
E3 EDB, DEG|A3 AGA Bde|g2 e edB dBA|1 A3 AGA BGF:|2 A3 AGA Bde||
g2 e edB d2 g|f3 fef agf|g2 e edB dBA|1 A3 AGA Bde:|2 A3 AGA BGF||

